X:1
T:Title
%%score { ( 1 3 ) | ( 2 4 ) }
L:1/8
Q:1/4=100
M:4/4
K:G
V:1 treble nm="Grand Piano"
V:3 treble 
V:2 bass 
V:4 bass 
V:1
 [B,D]>[B,D] [B,E]>[B,F] [B,G]2 [DB]2 | [EA]>[E^G] [EA]>[Ec] E4 | F>F F>G A2 _B2 | %3
w: Nellie~Place~Chandler * * * * *|||
 [DB]6[K:bass] z2 | [B,D]>[B,D] [B,E]>[B,F] [B,G]2 [DB]2 | [EA]>[EA] [EB]>[EB] [Ec]4 | %6
w: |||
 F>E D>c B2 A2 | [G,B,G]6 z2 | [Bd]2 [DB]2 [Bd]2 [Ac]2 | z4 [Fc]4 | [Ac]2 [Dc]2 [Ac]2 [Gc]2 | %11
w: |||||
 (3[Fc]cc [Fd]>c z2 [G,B,]2 | [DBd]>[DBd] (3[Bd]cB c2 c2 | [Ac]>[Ac] (3[Ac][GB][FA] B4 | %14
w: |||
[M:9/8] A>Bc- c/d/ [Ee]2 [Ec]3 |[M:4/4] [DB]>[B,GB] [DFB]>[CFA] [B,DG]4 |] %16
w: ||
V:2
 [G,,G,]>[G,,G,] [G,,G,]>[G,,D,] [G,,D,]2 [G,,G,]2 | [C,G,]>[C,G,] [C,G,]>[C,G,] [C,A,C]4 | %2
 [D,A,C]>[D,A,C] [D,A,C]>[D,G,C] [D,F,C]2 [D,F,^C]2 | [G,,G,]6 z2 | %4
 [G,,G,]>[G,,G,] [G,,G,]>[G,,D,] [G,,D,]2 [G,,G,]2 | [C,G,]>[C,G,] [B,,^G,]>[B,,G,] [A,,A,]4 | %6
 [D,A,C]>[D,G,C] [D,F,C]>[D,F,E] [D,F,D]2 [D,F,C]2 | z2 D,2 G,,2[K:treble] (3DGB | %8
 G,,2 [D,G,B,]2 D,,2 [D,F,A,]2 | (3z[K:treble] FG[K:bass] z z/ G/ A,,2 D,2 | %10
 D,,2 [D,F,A,]2 D,,2 [D,F,A,]2 | (3z[K:treble] GA[K:bass] z z/ E/ G,,2 D,2 | %12
 G,>G,[K:treble] (3[G,D]-[G,DA][G,DG] [A,DF]2 [A,DF]2 | %13
 [D,D]>[D,D] (3:2:2[D,D]2 [D,D][K:treble] [G,DG]4 | %14
[M:9/8] [G,D=F]>[G,DF][G,F]- [G,F]/[G,F]/[K:bass] [C,G,]2 [C,G,]3 |[M:4/4] [D,G,]>D, D,>D, G,,4 |] %16
V:3
 x8 | x8 | x8 | z2[K:bass] (3D,E,F, E,2 B,,2 | x8 | x8 | x8 | x8 | x8 | (3[GB]BB [AB]>B z2 [A,C]2 | %10
 x8 | z4 [DB]4 | x8 | x8 |[M:9/8] x9 |[M:4/4] x8 |] %16
V:4
 x8 | x8 | x8 | x8 | x8 | x8 | x8 | G,,4 z4[K:treble] | x8 | G,,2[K:treble][K:bass] [D,G,B,]2 z4 | %10
 x8 | D,,2[K:treble][K:bass] [D,F,C]2 z4 | x2[K:treble] x6 | x4[K:treble] x4 | %14
[M:9/8] x4[K:bass] x5 |[M:4/4] x8 |] %16

